static/app-icons/light-theme/051.svg

<svg xmlns="http://www.w3.org/2000/svg" viewBox="0 0 32 32"><defs><linearGradient id="linear-gradient" x1="18.715" y1="22.745" x2="29.715" y2="11.745" gradientUnits="userSpaceOnUse"><stop offset=".66"/><stop offset=".95" stop-opacity="0"/></linearGradient><linearGradient id="linear-gradient-2" y1="32" x2="32" gradientUnits="userSpaceOnUse"><stop offset=".1" stop-color="#42be65"/><stop offset=".9" stop-color="#007d79"/></linearGradient><style>.cls-5{fill:#001d6c}</style><mask id="mask" x="0" y="0" width="32" height="32" maskUnits="userSpaceOnUse"><path d="M27.79 6.238a7.495 7.495 0 00-10.684 0l-1.1 1.127-1.112-1.127a7.5 7.5 0 00-10.685 0 7.733 7.733 0 000 10.824L16 28.994l1.425-1.426-11.78-11.923a5.708 5.708 0 010-7.99 5.479 5.479 0 017.814 0l2.553 2.587 2.529-2.587a5.479 5.479 0 017.814 0 5.708 5.708 0 010 7.99l-6.314 6.4 1.426 1.426 6.323-6.4a7.733 7.733 0 000-10.833z" fill="#f2f2f2"/><path fill="url(#linear-gradient)" d="M27.215 9.245l4 5-10 11-5-5 11-11z"/></mask></defs><g id="Layer_2" data-name="Layer 2"><g id="Light_theme_icons" data-name="Light theme icons"><g mask="url(#mask)"><path fill="url(#linear-gradient-2)" d="M0 0h32v32H0z"/></g><path class="cls-5" d="M28 25h-2v-2h-5v2h-2v-2a2 2 0 012-2h5a2 2 0 012 2zM23.5 20a3.5 3.5 0 113.5-3.5 3.5 3.5 0 01-3.5 3.5zm0-5a1.5 1.5 0 101.5 1.5 1.5 1.5 0 00-1.5-1.5z"/></g></g></svg>

<svg xmlns="http://www.w3.org/2000/svg" xmlns:xlink="http://www.w3.org/1999/xlink" viewBox="0 0 32 32"><defs><style>.cls-1{fill:#f2f2f2;}.cls-2{fill:url(#linear-gradient);}.cls-3{mask:url(#mask);}.cls-4{fill:url(#linear-gradient-2);}.cls-5{fill:#001d6c;}</style><linearGradient id="linear-gradient" x1="18.715" y1="22.745" x2="29.715" y2="11.745" gradientUnits="userSpaceOnUse"><stop offset="0.66"/><stop offset="0.95" stop-opacity="0"/></linearGradient><mask id="mask" x="0" y="0" width="32" height="32" maskUnits="userSpaceOnUse"><path class="cls-1" d="M27.79,6.238a7.495,7.495,0,0,0-10.684,0l-1.1,1.127L14.894,6.238a7.5,7.5,0,0,0-10.685,0,7.733,7.733,0,0,0,0,10.824L16,28.994l1.425-1.426L5.645,15.645a5.708,5.708,0,0,1,0-7.99,5.479,5.479,0,0,1,7.814,0l2.553,2.587,2.529-2.587a5.479,5.479,0,0,1,7.814,0,5.708,5.708,0,0,1,0,7.99l-6.314,6.4,1.426,1.426,6.323-6.4A7.733,7.733,0,0,0,27.79,6.238Z"/><polygon class="cls-2" points="27.215 9.245 31.215 14.245 21.215 25.245 16.215 20.245 27.215 9.245"/></mask><linearGradient id="linear-gradient-2" y1="32" x2="32" gradientUnits="userSpaceOnUse"><stop offset="0.1" stop-color="#42be65"/><stop offset="0.9" stop-color="#007d79"/></linearGradient></defs><g id="Layer_2" data-name="Layer 2"><g id="Light_theme_icons" data-name="Light theme icons"><g class="cls-3"><rect class="cls-4" width="32" height="32"/></g><path class="cls-5" d="M28,25H26V23H21v2H19V23a2,2,0,0,1,2-2h5a2,2,0,0,1,2,2Z"/><path class="cls-5" d="M23.5,20A3.5,3.5,0,1,1,27,16.5,3.5,3.5,0,0,1,23.5,20Zm0-5A1.5,1.5,0,1,0,25,16.5,1.5,1.5,0,0,0,23.5,15Z"/></g></g></svg>
